X: 117
T: Bryant's Barbecue (reel)
N: 020428
C: BB
N: Minor revisions 1/4/07
M: 4/4
Q: 1/8=380
R: reel
L: 1/8
K: Ador
AB|"Am"cedc AEAc|"G"BGBd edcB|"Am"cA^GA "G"dBBd|"Em"edcB "Am"A2 AB|
"C"ceef gece|"Am"agec "G"BdBG |"Em"EGGB "C"cEBE|"Am"AGEG A2 :|
eg|"Am"aABc ABcA|eABc ABcA|"G"gd^cd Bd^cd|gdgb ageg|
"Am"aABc ABcA|eABc ABcA|"G"gdBG "Em"EFGB|"Am"cA"G"BG "Am"A2 :|
%%%%%%%%%%%%%%%%%%%%%%%%%%%%%%%%%%%%%%%%%%%
